X:0795
M:6/8
L:1/8
Q:3/8=104
K:D
     Afa/f/    gee|fdd ecc| dBB     Adf|edd d2
d/c/|ddd      =ccc|BGB AFD|=c>de/c/ BGB|eee e>fe/d/|
     cc/d/e/f/ gee|edd ecc| dBd     gBB|AFA d2     \

